public/images/icon_twitter.svg

<svg fill="none" height="24" viewBox="0 0 24 24" width="24" xmlns="http://www.w3.org/2000/svg"><path d="m23.1655 2.39999.4989-.03307c-.0133-.20057-.1454-.37368-.3354-.43943-.1899-.06574-.4008-.01134-.5352.1381zm-1.0976 4.73425c0-.27614-.2238-.5-.5-.5-.2761 0-.5.22386-.5.5zm-10.0851.13151h-.5zm0 1.53424h.5zm-11.182751 11.20001v-.5c-.220268 0-.414589.1441-.478494.3549-.063906.2108.017661.4386.200847.5609zm1.597531-17.60001.46825-.17532c-.06976-.18634-.24337-.31357-.44207-.32399s-.38466.09797-.47353.27598zm6.39012 14.40001.35383.3533c.12236-.1226.17259-.2997.13278-.4683-.03982-.1685-.16401-.3044-.32827-.3593zm11.558-12.8426-.3708.33535.1801.19924.2656-.04022zm2.3209-1.52433c.0835 1.25956.0098 2.06321-.2122 2.68891-.2183.61525-.5976 1.10872-1.2324 1.717l.6919.72203c.6853-.6567 1.1899-1.27854 1.483-2.1047.2893-.81571.3543-1.77958.2675-3.08939zm-.5987 5.86691v-1.16574h-1v1.16574zm-10.5851-1.03423v1.53424h1v-1.53424zm0 1.53424v.8h1v-.8zm5.3582-6.9c-2.96 0-5.3582 2.40306-5.3582 5.36576h1c0-2.41187 1.9519-4.36576 4.3582-4.36576zm4.2269 6.39999c0 7.07002-5.7223 12.80002-12.77944 12.80002v1c7.61094 0 13.77944-6.1792 13.77944-13.80002zm-19.13857-5.72466c.84291 2.25123 4.02184 6.72467 10.05347 6.72467v-1c-5.47066 0-8.36235-4.05989-9.11697-6.07532zm.0209-.39866c-1.645802 3.29669-1.8819618 6.45528-.70934 9.12444 1.17088 2.6652 3.70259 4.7426 7.38848 5.9732l.31667-.9486c-3.503-1.1694-5.76389-3.092-6.78961-5.4268-1.02398-2.33085-.86076-5.17226.6885-8.27558zm6.48364 14.27004c-1.00148 1.0031-3.96994 3.0533-7.633821 3.0533v1c4.004271 0 7.212961-2.2164 8.341481-3.3467zm12.28273-12.82464c-.9556-1.05685-2.3383-1.72207-3.8756-1.72207v1c1.2427 0 2.3597.53653 3.1339 1.39276zm-.296.82971c1.1455-.17349 2.2706-.77696 3.1166-1.71737l-.7434-.66881c-.6973.77502-1.6153 1.25998-2.5229 1.39745zm-19.898198 15.96403c2.539298 1.6955 5.201128 1.6842 7.766058 1.6842v-1c-2.59797 0-4.95747-.0113-7.21076-1.5158z" fill="#ddd"/></svg>

<svg width="24" height="24" viewBox="0 0 24 24" fill="none" xmlns="http://www.w3.org/2000/svg">
<path d="M23.1655 2.39999L23.6644 2.36692C23.6511 2.16635 23.519 1.99324 23.329 1.92749C23.1391 1.86175 22.9282 1.91615 22.7938 2.06559L23.1655 2.39999ZM22.0679 7.13424C22.0679 6.8581 21.8441 6.63424 21.5679 6.63424C21.2918 6.63424 21.0679 6.8581 21.0679 7.13424H22.0679ZM11.9828 7.26575H11.4828V7.26575L11.9828 7.26575ZM11.9828 8.79999L12.4828 8.79999V8.79999L11.9828 8.79999ZM0.800049 20V19.5C0.579781 19.5 0.38546 19.6441 0.321555 19.8549C0.257649 20.0657 0.339216 20.2935 0.522402 20.4158L0.800049 20ZM2.39758 2.39999L2.86583 2.22467C2.79607 2.03833 2.62246 1.9111 2.42376 1.90068C2.22506 1.89026 2.0391 1.99865 1.95023 2.17666L2.39758 2.39999ZM8.7877 16.8L9.14153 17.1533C9.26389 17.0307 9.31412 16.8536 9.27431 16.685C9.23449 16.5165 9.1103 16.3806 8.94604 16.3257L8.7877 16.8ZM20.3457 3.9574L19.9749 4.29275L20.155 4.49199L20.4206 4.45177L20.3457 3.9574ZM22.6666 2.43307C22.7501 3.69263 22.6764 4.49628 22.4544 5.12198C22.2361 5.73723 21.8568 6.2307 21.222 6.83898L21.9139 7.56101C22.5992 6.90431 23.1038 6.28247 23.3969 5.45631C23.6862 4.6406 23.7512 3.67673 23.6644 2.36692L22.6666 2.43307ZM22.0679 8.29998V7.13424H21.0679V8.29998H22.0679ZM11.4828 7.26575L11.4828 8.79999L12.4828 8.79999L12.4828 7.26575L11.4828 7.26575ZM11.4828 8.79999L11.4828 9.59999L12.4828 9.59999L12.4828 8.79999L11.4828 8.79999ZM16.841 1.89999C13.881 1.89999 11.4828 4.30305 11.4828 7.26575H12.4828C12.4828 4.85388 14.4347 2.89999 16.841 2.89999V1.89999ZM21.0679 8.29998C21.0679 15.37 15.3456 21.1 8.28846 21.1V22.1C15.8994 22.1 22.0679 15.9208 22.0679 8.29998H21.0679ZM1.92933 2.57532C2.77224 4.82655 5.95117 9.29999 11.9828 9.29999V8.29999C6.51214 8.29999 3.62045 4.2401 2.86583 2.22467L1.92933 2.57532ZM1.95023 2.17666C0.304428 5.47335 0.0682682 8.63194 1.24089 11.3011C2.41177 13.9663 4.94348 16.0437 8.62937 17.2743L8.94604 16.3257C5.44304 15.1563 3.18215 13.2337 2.15643 10.8989C1.13245 8.56805 1.29567 5.72664 2.84493 2.62332L1.95023 2.17666ZM8.43387 16.4467C7.43239 17.4498 4.46393 19.5 0.800049 19.5V20.5C4.80432 20.5 8.01301 18.2836 9.14153 17.1533L8.43387 16.4467ZM20.7166 3.62206C19.761 2.56521 18.3783 1.89999 16.841 1.89999V2.89999C18.0837 2.89999 19.2007 3.43652 19.9749 4.29275L20.7166 3.62206ZM20.4206 4.45177C21.5661 4.27828 22.6912 3.67481 23.5372 2.7344L22.7938 2.06559C22.0965 2.84061 21.1785 3.32557 20.2709 3.46304L20.4206 4.45177ZM0.522402 20.4158C3.0617 22.1113 5.72353 22.1 8.28846 22.1V21.1C5.69049 21.1 3.33099 21.0887 1.0777 19.5842L0.522402 20.4158Z" fill="#DDDDDD"/>
</svg>
